X:115
T:La Clara. RH.115
R:Set Tune
S:Rev.R.Harrison’s MS,c1815,Cumbria
N:makes a good polka
O:England
A:Temple Sowerby,Cumbria
Z:vmp.Simon Wilson. Review PJH, 2008.
M:2/4
L:1/16
Q:1/4=100
K:A
e>ee>e|\
a2a2 e2e2|c4 A>Bc>A|B2B2 e2e2|(d2c2) e>ee>e|!
a2a2 e2e2|c3e d>cB>A|f>ag>f e>dc>B|” Fine”A4:|!
|:c>cc>c|B2e2 ^d2f2|a4 g>fe>^d|c2f2 ^d2b2|(g2e2) c>cc>c|!
B2e2 ^d2f2|a3a g>fe>^d|c2c2^d2d2|e4:|!
K:C
c>cc>c|(e2A2) c>cc>c|(e2A2) f>ef>e|\
d2[B2d2] [A2c2][A2c2]|[^G4B4]A>Ac>c|!
e4 A>Ac>c|e2zG a>^ga>e|f2d>f e>dc>B|A4 z2|]

